X:1
T:Title
%%score { ( 1 3 ) | ( 2 4 ) }
L:1/8
M:6/8
K:Bb
V:1 treble nm="Grand Piano"
V:3 treble 
V:2 bass 
V:4 bass 
V:1
 z3 z2[Q:1/4=100] [FB] | [Bd]2 [B_d] [B=d]2 [df] | [ce]2 [Ac] [Bd]2 [Bd] | [Ac]2 [Bd] [ce]2 [ce] | %4
 [Bd]3- [Bd]2 [FB] | [Bd]2 [B_d] [B=d]2 [df] | [Be]2 [Be] [Bd]2 [Bd] | [Gc]2 [Gc] [Bd]2 [Bc] | %8
[M:15/16] f3/2-f3/2-f3/2- f3 |[M:3/4] d2 d [ce]2 [Ac] | d6 | e2 c [df]2 [ce] | d6 | %13
 [df]2 [df] [Bd]3 |[M:15/16] [Bd]->[Bd][Bd][Be]3/2- [Be]3 | %15
[M:13/16] z/ z/ z/ z/ z/ z/ z/ z/ z e3/2 |[M:5/8] [Bd]-[Bd]- [Bd]3 |] %17
V:2
 z3 z2 [B,,D,] | [B,,F,]2 [B,,=E,] [B,,F,]2 [B,,B,] | [F,A,]2 F, [B,,F,]2 [B,,F,] | %3
 F,2 F, [F,G,]2 [F,A,] | [B,,B,]3- [B,,B,]2 [B,,D,] | [B,,F,]2 [B,,=E,] [B,,F,]2 [B,,_A,] | %6
 [B,,G,]2 [B,,^F,] [B,,=F,]2 [B,,F,] | [C,=E,]2 [C,E,] [C,G,]2 [C,E,] |[M:15/16] F,3 A,3/2- A,3 | %9
[M:3/4][K:treble] B2 B[K:bass] [F,A,]2 F, | [B,,B,]>[B,,F,] [B,,F,] [B,,F,]3 | %11
 c2 A[K:bass] [F,B,]2 [F,A,] | [B,,B,]>[B,,F,] [B,,F,] [B,,F,]3 | [B,,B,]2 [B,,B,] [B,,F,]3 | %14
[M:15/16] [_A,,F,]->[A,,F,][A,,F,][G,,E,]3/2- [G,,E,]3 | %15
[M:13/16] [F,,F,]-<[F,,F,][F,,F,][F,,G,]-<[F,,G,].[F,,A,c]3/2 |[M:5/8] [B,,F,]-[B,,F,]- [B,,F,]3 |] %17
V:3
 x6 | x6 | x6 | x6 | x6 | x6 | x6 | x6 |[M:15/16] A->Ace3/2- e3 |[M:3/4] x6 | B>B B B3 | x6 | %12
 B>B B B3 | x6 |[M:15/16] x15/2 |[M:13/16] [Bd]-<[Bd][Ac][ce]-<[ce] z/ F, |[M:5/8] x5 |] %17
V:4
 x6 | x6 | x6 | x6 | x6 | x6 | x6 | x6 |[M:15/16] F,,3/2-F,,3/2-F,,3/2- F,,3 | %9
[M:3/4][K:treble] x3[K:bass] x3 | x6 | x3[K:bass] x3 | x6 | x6 |[M:15/16] x15/2 |[M:13/16] x13/2 | %16
[M:5/8] x5 |] %17

